data/sheikah/5.svg

<!-- Generated by IcoMoon.io -->
<svg version="1.1" xmlns="http://www.w3.org/2000/svg" width="1024" height="1024" viewBox="0 0 1024 1024">
<title></title>
<g id="icomoon-ignore">
</g>
<path d="M572 571.5v-119.5h-119.5v119.5h119.5zM751 870.5l119.5-119.5v-299h-119.5v299h-597.5l119.5 119.5h478zM870.5 273l-119.5-119.5h-478l-119.5 119.5v298.5h119.5v-298.5h597.5z"></path>
</svg>

<svg xmlns="http://www.w3.org/2000/svg" width="1024" height="1024" viewBox="0 0 1024 1024">
  <title/>
  <path d="M572 571.5V452H452.5v119.5zm179 299L870.5 751V452H751v299H153.5L273 870.5zM870.5 273 751 153.5H273L153.5 273v298.5H273V273z"/>
</svg>
